packages/match-icons/twilio/svg/megaphone.svg

<svg fill="none" height="32" viewBox="0 0 32 32" width="32" xmlns="http://www.w3.org/2000/svg"><g stroke="#394762" stroke-linecap="round" stroke-linejoin="round" stroke-width="1.7"><path d="m4.176 17.0667.59733-1.5667-1.39467-3.6587c-.10013-.2639-.10713-.5541-.01984-.8225s.26364-.499.49984-.6535l3.27734-2.13997 1.02266-3.77867c.07389-.27251.23875-.51155.46721-.67744.22847-.16589.5068-.24866.78879-.23456l3.90934.19867 3.048-2.46c.22-.17739.4941-.274123.7767-.274123s.5566.096733.7766.274123l3.048 2.46 3.9094-.19467c.282-.0141.5603.06867.7888.23456.2284.16589.3933.40493.4672.67744l1.0226 3.77867 3.2774 2.13997c.2364.1544.4129.3849.5002.6534s.0801.5588-.0202.8226l-1.3934 3.6587 1.3934 3.6573c.1004.2641.1076.5546.0203.8233s-.2638.4995-.5003.6541l-3.2774 2.1333-1.028 3.78c-.0734.2729-.2381.5124-.4666.6785-.2286.1662-.5072.2491-.7894.2348l-3.9093-.1946-3.048 2.4546"/><path d="m1 26.3586 2.208 3.4787"/><path d="m13.2107 10.8627 8.392 13.2213"/><path d="m21.1613 23.388-18.39462 5.7547-1.32533-2.088 12.21065-15.496z"/><path d="m6.74133 27.8986 1.168 1.7947c.19313.3166.44893.5904.7517.8046s.64613.3642 1.00898.4409c.36289.0766.73759.0783 1.10109.0049s.7082-.2203 1.0129-.4317c.6229-.4483 1.0509-1.1177 1.1964-1.8712.1455-.7536-.0025-1.5342-.4137-2.1822l-.2174-.3146"/></g></svg>

<svg width="32" height="32" viewBox="0 0 32 32" fill="none" xmlns="http://www.w3.org/2000/svg">
<path d="M4.176 17.0667L4.77333 15.5L3.37866 11.8413C3.27853 11.5774 3.27153 11.2872 3.35882 11.0188C3.44611 10.7504 3.62246 10.5198 3.85866 10.3653L7.136 8.22533L8.15866 4.44666C8.23255 4.17415 8.39741 3.93511 8.62587 3.76922C8.85434 3.60333 9.13267 3.52056 9.41466 3.53466L13.324 3.73333L16.372 1.27333C16.592 1.09594 16.8661 0.999207 17.1487 0.999207C17.4313 0.999207 17.7053 1.09594 17.9253 1.27333L20.9733 3.73333L24.8827 3.53866C25.1647 3.52456 25.443 3.60733 25.6715 3.77322C25.8999 3.93911 26.0648 4.17815 26.1387 4.45066L27.1613 8.22933L30.4387 10.3693C30.6751 10.5237 30.8516 10.7542 30.9389 11.0227C31.0262 11.2912 31.019 11.5815 30.9187 11.8453L29.5253 15.504L30.9187 19.1613C31.0191 19.4254 31.0263 19.7159 30.939 19.9846C30.8517 20.2533 30.6752 20.4841 30.4387 20.6387L27.1613 22.772L26.1333 26.552C26.0599 26.8249 25.8952 27.0644 25.6667 27.2305C25.4381 27.3967 25.1595 27.4796 24.8773 27.4653L20.968 27.2707L17.92 29.7253" stroke="#394762" stroke-width="1.7" stroke-linecap="round" stroke-linejoin="round"/>
<path d="M1 26.3586L3.208 29.8373" stroke="#394762" stroke-width="1.7" stroke-linecap="round" stroke-linejoin="round"/>
<path d="M13.2107 10.8627L21.6027 24.084" stroke="#394762" stroke-width="1.7" stroke-linecap="round" stroke-linejoin="round"/>
<path d="M21.1613 23.388L2.76668 29.1427L1.44135 27.0547L13.652 11.5587L21.1613 23.388Z" stroke="#394762" stroke-width="1.7" stroke-linecap="round" stroke-linejoin="round"/>
<path d="M6.74133 27.8986L7.90933 29.6933C8.10246 30.0099 8.35826 30.2837 8.66103 30.4979C8.9638 30.7121 9.30716 30.8621 9.67001 30.9388C10.0329 31.0154 10.4076 31.0171 10.7711 30.9437C11.1346 30.8703 11.4793 30.7234 11.784 30.512C12.4069 30.0637 12.8349 29.3943 12.9804 28.6408C13.1259 27.8872 12.9779 27.1066 12.5667 26.4586L12.3493 26.144" stroke="#394762" stroke-width="1.7" stroke-linecap="round" stroke-linejoin="round"/>
</svg>
